src/img/clipboard.svg

<svg width="48" height="48" viewBox="0 0 48 48" fill="none" xmlns="http://www.w3.org/2000/svg">
<path fill-rule="evenodd" clip-rule="evenodd" d="M17.9918 3.99854C19.4964 2.72448 21.6783 1.99854 24 1.99854C26.3217 1.99854 28.5036 2.72448 30.0082 3.99854H32C34.2091 3.99854 36 5.7894 36 7.99854H38C40.2091 7.99854 42 9.7894 42 11.9985V41.9985C42 44.2077 40.2091 45.9985 38 45.9985H10C7.79086 45.9985 6 44.2077 6 41.9985V11.9985C6 9.7894 7.79086 7.99854 10 7.99854H12C12 5.7894 13.7909 3.99854 16 3.99854H17.9918ZM32 13.9985C33.4806 13.9985 34.7733 13.1941 35.4649 11.9985H38V41.9985H10V11.9985H12.5351C13.2267 13.1941 14.5194 13.9985 16 13.9985H32ZM16 31.9988V27.9988H28V31.9988H16ZM16 19.9985V23.9985H32V19.9985H16ZM19.7153 7.99951L20.3133 7.31027C20.9704 6.55299 22.3789 5.99951 24 5.99951C25.6212 5.99951 27.0296 6.55299 27.6867 7.31027L28.2848 7.99951H32V9.99951H16V7.99951H18.8027H19.7153Z" fill="#13A9B2"/>
</svg>

<svg xmlns="http://www.w3.org/2000/svg" width="48" height="48" fill="none"><path fill="#13A9B2" fill-rule="evenodd" d="M17.992 3.999c1.504-1.275 3.686-2 6.008-2s4.504.725 6.008 2H32a4 4 0 0 1 4 4h2a4 4 0 0 1 4 4v30a4 4 0 0 1-4 4H10a4 4 0 0 1-4-4v-30a4 4 0 0 1 4-4h2a4 4 0 0 1 4-4h1.992Zm14.008 10c1.48 0 2.773-.805 3.465-2H38v30H10v-30h2.535a3.998 3.998 0 0 0 3.465 2h16Zm-16 18v-4h12v4H16Zm0-12v4h16v-4H16Zm3.715-12 .598-.689C20.97 6.553 22.38 6 24 6s3.03.553 3.687 1.31l.598.69H32v2H16V8h3.715Z" clip-rule="evenodd"/></svg>
